Newaita-dark/apps/24/preferences-plugin.svg

<svg height="24" viewBox="0 0 24 24" width="24" xmlns="http://www.w3.org/2000/svg" xmlns:xlink="http://www.w3.org/1999/xlink"><linearGradient id="a"><stop offset="0" stop-opacity=".27451"/><stop offset="1" stop-opacity="0"/></linearGradient><linearGradient id="b" gradientTransform="matrix(.0105479 0 0 .0468795 2.902424 9.086807)" gradientUnits="userSpaceOnUse" x1="254" x2="254" xlink:href="#a" y1="233.5" y2="254.666672"/><linearGradient id="c"><stop offset="0" stop-opacity=".313726"/><stop offset=".222222" stop-opacity=".27451"/><stop offset="1" stop-opacity="0"/></linearGradient><radialGradient id="d" cx="450.908936" cy="189.579361" gradientTransform="matrix(.00000013 -.0585994 -.105479 -.00000008 26.446391 46.704218)" gradientUnits="userSpaceOnUse" r="21.166656" xlink:href="#c"/><radialGradient id="e" cx="450.908936" cy="189.579361" gradientTransform="matrix(-.00000013 .0585994 .105479 .00000008 -15.283213 -6.637891)" gradientUnits="userSpaceOnUse" r="21.166656" xlink:href="#c"/><radialGradient id="f" cx="450.908936" cy="189.579361" gradientTransform="matrix(-.00000013 -.0585994 .105479 -.00000008 -15.283213 46.704218)" gradientUnits="userSpaceOnUse" r="21.166656" xlink:href="#c"/><radialGradient id="g" cx="450.908936" cy="189.579361" gradientTransform="matrix(.00000013 .0585994 -.105479 .00000008 26.446388 -6.637891)" gradientUnits="userSpaceOnUse" r="21.166656" xlink:href="#c"/><linearGradient id="h" gradientTransform="matrix(.0105479 0 0 .0468795 10.840684 9.086807)" gradientUnits="userSpaceOnUse" x1="254" x2="254" xlink:href="#a" y1="233.5" y2="254.666672"/><radialGradient id="i" cx="450.908936" cy="189.579361" gradientTransform="matrix(.00000013 -.0585994 -.105479 -.00000008 34.384651 46.704218)" gradientUnits="userSpaceOnUse" r="21.166656" xlink:href="#c"/><radialGradient id="j" cx="450.908936" cy="189.579361" gradientTransform="matrix(-.00000013 .0585994 .105479 .00000008 -7.344953 -6.637891)" gradientUnits="userSpaceOnUse" r="21.166656" xlink:href="#c"/><radialGradient id="k" cx="450.908936" cy="189.579361" gradientTransform="matrix(-.00000013 -.0585994 .105479 -.00000008 -7.344953 46.704218)" gradientUnits="userSpaceOnUse" r="21.166656" xlink:href="#c"/><radialGradient id="l" cx="450.908936" cy="189.579361" gradientTransform="matrix(.00000013 .0585994 -.105479 .00000008 34.384648 -6.637891)" gradientUnits="userSpaceOnUse" r="21.166656" xlink:href="#c"/><linearGradient id="m" gradientUnits="userSpaceOnUse" x1="9.42666" x2="9.42666" y1="20.03311814717" y2="2.17207777507"><stop offset="0" stop-color="#5c6bc0"/><stop offset="1" stop-color="#7986cb"/></linearGradient><path d="m4.464844 20.03125h2.234375v.996094h-2.234375zm0 0" fill="url(#b)"/><path d="m6.699219 20.03125h1.984375v-.992188h-1.984375zm0 0" fill="url(#d)"/><path d="m4.464844 20.03125h-1.984375v.996094h1.984375zm0 0" fill="url(#e)"/><path d="m4.464844 20.03125h-1.984375v-.992188h1.984375zm0 0" fill="url(#f)"/><path d="m6.699219 20.03125h1.984375v.996094h-1.984375zm0 0" fill="url(#g)"/><path d="m12.402344 20.03125h2.234375v.996094h-2.234375zm0 0" fill="url(#h)"/><path d="m14.636719 20.03125h1.984375v-.992188h-1.984375zm0 0" fill="url(#i)"/><path d="m12.402344 20.03125h-1.984375v.996094h1.984375zm0 0" fill="url(#j)"/><path d="m12.402344 20.03125h-1.984375v-.992188h1.984375zm0 0" fill="url(#k)"/><path d="m14.636719 20.03125h1.984375v.996094h-1.984375zm0 0" fill="url(#l)"/><path d="m9.425781 2.171875c-1.375 0-2.480469 1.105469-2.480469 2.480469 0 .816406.390626 1.535156.992188 1.988281v.492187h-4.464844c-.273437 0-.496094.222657-.496094.496094v4.464844h.492188c.453125-.601562 1.175781-.992188 1.988281-.992188 1.375 0 2.480469 1.109376 2.480469 2.480469 0 1.375-1.105469 2.480469-2.480469 2.480469-.8125 0-1.535156-.386719-1.988281-.992188h-.492188v4.464844c0 .277344.222657.496094.496094.496094h4.464844v-.492188c-.601562-.449218-.992188-1.171874-.992188-1.988281 0-1.371093 1.105469-2.480469 2.480469-2.480469s2.480469 1.109376 2.480469 2.480469c0 .816407-.386719 1.539063-.992188 1.988281v.492188h4.464844c.277344 0 .496094-.21875.496094-.496094v-4.464844h.496094c.449218.605469 1.171875.992188 1.984375.992188 1.375 0 2.484375-1.105469 2.484375-2.480469 0-1.371093-1.109375-2.480469-2.484375-2.480469-.8125 0-1.535157.390626-1.984375.992188h-.496094v-4.464844c0-.273437-.21875-.496094-.496094-.496094h-4.464844v-.492187c.605469-.453125.992188-1.171875.992188-1.988281 0-1.375-1.105469-2.480469-2.480469-2.480469zm0 0" fill="url(#m)"/><path d="m9.425781 2.171875c-1.375 0-2.480469 1.105469-2.480469 2.480469 0 .0625.003907.125.007813.183594.09375-1.285157 1.164063-2.292969 2.472656-2.292969 1.3125 0 2.378907 1.007812 2.476563 2.292969.003906-.058594.003906-.121094.003906-.183594 0-1.375-1.105469-2.480469-2.480469-2.480469zm-5.953125 4.960937c-.273437 0-.496094.222657-.496094.496094v.371094c0-.273438.222657-.496094.496094-.496094h4.464844v-.371094zm7.441406 0v.371094h4.464844c.277344 0 .496094.222656.496094.496094v-.371094c0-.273437-.21875-.496094-.496094-.496094zm7.441407 3.96875c-.8125 0-1.535157.390626-1.984375.992188h-.496094v.375h.496094c.449218-.605469 1.171875-.992188 1.984375-.992188 1.3125 0 2.382812 1.007813 2.476562 2.292969.003907-.0625.007813-.125.007813-.1875 0-1.371093-1.109375-2.480469-2.484375-2.480469zm-10.425781 2.667969c-.09375 1.285157-1.160157 2.292969-2.472657 2.292969-.8125 0-1.535156-.386719-1.988281-.992188h-.492188v.375h.492188c.453125.601563 1.175781.992188 1.988281.992188 1.375 0 2.480469-1.109375 2.480469-2.480469 0-.0625 0-.125-.007812-.1875zm-.976563 3.96875c-.003906.0625-.007813.125-.007813.1875 0 .8125.390626 1.535157.992188 1.984375v-.371094c-.554688-.417968-.929688-1.0625-.984375-1.800781zm4.949219 0c-.054688.738281-.429688 1.382813-.988282 1.800781v.371094c.605469-.449218.992188-1.171875.992188-1.984375 0-.0625 0-.125-.003906-.1875zm0 0" fill="#fff" fill-opacity=".392157"/><path d="m6.953125 4.464844c-.003906.0625-.007813.125-.007813.1875 0 .816406.390626 1.535156.992188 1.988281v-.371094c-.554688-.417969-.929688-1.066406-.984375-1.804687zm4.949219 0c-.054688.738281-.429688 1.386718-.988282 1.804687v.371094c.605469-.453125.992188-1.171875.992188-1.988281 0-.0625 0-.125-.003906-.1875zm-6.445313 6.265625c-.8125 0-1.535156.390625-1.988281.992187h-.492188v.371094h.492188c.453125-.601562 1.175781-.992188 1.988281-.992188 1.3125 0 2.378907 1.007813 2.472657 2.296876.007812-.0625.007812-.125.007812-.1875 0-1.375-1.105469-2.480469-2.480469-2.480469zm15.375 2.667969c-.09375 1.285156-1.164062 2.292968-2.476562 2.292968-.8125 0-1.535157-.386718-1.984375-.992187h-.496094v.371093h.496094c.449218.605469 1.171875.992188 1.984375.992188 1.375 0 2.484375-1.105469 2.484375-2.480469 0-.0625-.003906-.125-.007813-.183593zm-11.40625 1.300781c-1.375 0-2.480469 1.105469-2.480469 2.480469 0 .0625.003907.125.007813.183593.09375-1.285156 1.164063-2.292969 2.472656-2.292969 1.3125 0 2.378907 1.007813 2.476563 2.292969.003906-.058593.003906-.121093.003906-.183593 0-1.375-1.105469-2.480469-2.480469-2.480469zm-6.449219 4.464843v.371094c0 .277344.222657.496094.496094.496094h4.464844v-.371094h-4.464844c-.273437 0-.496094-.21875-.496094-.496094zm12.898438 0c0 .277344-.21875.496094-.496094.496094h-4.464844v.371094h4.464844c.277344 0 .496094-.21875.496094-.496094zm0 0" fill-opacity=".235294"/><path d="m759.927471 175.101398c-110.855562 0-199.980914 89.125352-199.980914 199.980913 0 65.82049 31.493057 123.767715 79.992366 160.299662v39.681252h-359.965644c-22.04514 0-39.996183 17.951042-39.996183 39.996182v359.965644h39.681252c36.531946-48.499308 94.794102-79.992365 160.299661-79.992365 110.855562 0 199.980914 89.440282 199.980914 199.980913 0 110.855562-89.125352 199.980914-199.980914 199.980914-65.505559 0-123.767715-31.178127-160.299661-79.992366h-39.681252v359.965644c0 22.360071 17.951043 39.996183 39.996183 39.996183h359.965644v-39.681252c-48.499309-36.217016-79.992366-94.479172-79.992366-160.299662 0-110.54063 89.125352-199.980913 199.980914-199.980913 110.855561 0 199.980913 89.440283 199.980913 199.980913 0 65.82049-31.178127 124.082646-79.992366 160.299662v39.681252h359.965644c22.360071 0 39.996183-17.636112 39.996183-39.996183v-359.965644h39.996183c36.217016 48.814239 94.479171 79.992366 159.98473 79.992366 110.855562 0 200.295844-89.125352 200.295844-199.980914 0-110.540631-89.440282-199.980913-200.295844-199.980913-65.505559 0-123.767714 31.493057-159.98473 79.992365h-39.996183v-359.965644c0-22.04514-17.636112-39.996182-39.996183-39.996182h-359.965644v-39.681252c48.814239-36.531947 79.992366-94.479172 79.992366-160.299662 0-110.855561-89.125352-199.980913-199.980913-199.980913zm0 0" fill="none" stroke="#212121" stroke-linecap="round" stroke-linejoin="round" stroke-width="11.338583" transform="scale(.0124035)"/></svg>

<?xml version="1.0" encoding="UTF-8"?>
<svg xmlns="http://www.w3.org/2000/svg" xmlns:xlink="http://www.w3.org/1999/xlink" width="24px" height="24px" viewBox="0 0 24 24" version="1.1">
<defs>
<linearGradient id="linear0" gradientUnits="userSpaceOnUse" x1="254" y1="233.5" x2="254" y2="254.666672" gradientTransform="matrix(0.0105479,0,0,0.0468795,2.902424,9.086807)">
<stop offset="0" style="stop-color:rgb(0%,0%,0%);stop-opacity:0.27451;"/>
<stop offset="1" style="stop-color:rgb(0%,0%,0%);stop-opacity:0;"/>
</linearGradient>
<radialGradient id="radial0" gradientUnits="userSpaceOnUse" cx="450.908936" cy="189.579361" fx="450.908936" fy="189.579361" r="21.166656" gradientTransform="matrix(0.000000130628,-0.0585994,-0.105479,-0.0000000761539,26.446391,46.704218)">
<stop offset="0" style="stop-color:rgb(0%,0%,0%);stop-opacity:0.313726;"/>
<stop offset="0.222222" style="stop-color:rgb(0%,0%,0%);stop-opacity:0.27451;"/>
<stop offset="1" style="stop-color:rgb(0%,0%,0%);stop-opacity:0;"/>
</radialGradient>
<radialGradient id="radial1" gradientUnits="userSpaceOnUse" cx="450.908936" cy="189.579361" fx="450.908936" fy="189.579361" r="21.166656" gradientTransform="matrix(-0.000000130628,0.0585994,0.105479,0.0000000761539,-15.283213,-6.637891)">
<stop offset="0" style="stop-color:rgb(0%,0%,0%);stop-opacity:0.313726;"/>
<stop offset="0.222222" style="stop-color:rgb(0%,0%,0%);stop-opacity:0.27451;"/>
<stop offset="1" style="stop-color:rgb(0%,0%,0%);stop-opacity:0;"/>
</radialGradient>
<radialGradient id="radial2" gradientUnits="userSpaceOnUse" cx="450.908936" cy="189.579361" fx="450.908936" fy="189.579361" r="21.166656" gradientTransform="matrix(-0.000000130628,-0.0585994,0.105479,-0.0000000761539,-15.283213,46.704218)">
<stop offset="0" style="stop-color:rgb(0%,0%,0%);stop-opacity:0.313726;"/>
<stop offset="0.222222" style="stop-color:rgb(0%,0%,0%);stop-opacity:0.27451;"/>
<stop offset="1" style="stop-color:rgb(0%,0%,0%);stop-opacity:0;"/>
</radialGradient>
<radialGradient id="radial3" gradientUnits="userSpaceOnUse" cx="450.908936" cy="189.579361" fx="450.908936" fy="189.579361" r="21.166656" gradientTransform="matrix(0.000000130628,0.0585994,-0.105479,0.0000000761539,26.446388,-6.637891)">
<stop offset="0" style="stop-color:rgb(0%,0%,0%);stop-opacity:0.313726;"/>
<stop offset="0.222222" style="stop-color:rgb(0%,0%,0%);stop-opacity:0.27451;"/>
<stop offset="1" style="stop-color:rgb(0%,0%,0%);stop-opacity:0;"/>
</radialGradient>
<linearGradient id="linear1" gradientUnits="userSpaceOnUse" x1="254" y1="233.5" x2="254" y2="254.666672" gradientTransform="matrix(0.0105479,0,0,0.0468795,10.840684,9.086807)">
<stop offset="0" style="stop-color:rgb(0%,0%,0%);stop-opacity:0.27451;"/>
<stop offset="1" style="stop-color:rgb(0%,0%,0%);stop-opacity:0;"/>
</linearGradient>
<radialGradient id="radial4" gradientUnits="userSpaceOnUse" cx="450.908936" cy="189.579361" fx="450.908936" fy="189.579361" r="21.166656" gradientTransform="matrix(0.000000130628,-0.0585994,-0.105479,-0.0000000761539,34.384651,46.704218)">
<stop offset="0" style="stop-color:rgb(0%,0%,0%);stop-opacity:0.313726;"/>
<stop offset="0.222222" style="stop-color:rgb(0%,0%,0%);stop-opacity:0.27451;"/>
<stop offset="1" style="stop-color:rgb(0%,0%,0%);stop-opacity:0;"/>
</radialGradient>
<radialGradient id="radial5" gradientUnits="userSpaceOnUse" cx="450.908936" cy="189.579361" fx="450.908936" fy="189.579361" r="21.166656" gradientTransform="matrix(-0.000000130628,0.0585994,0.105479,0.0000000761539,-7.344953,-6.637891)">
<stop offset="0" style="stop-color:rgb(0%,0%,0%);stop-opacity:0.313726;"/>
<stop offset="0.222222" style="stop-color:rgb(0%,0%,0%);stop-opacity:0.27451;"/>
<stop offset="1" style="stop-color:rgb(0%,0%,0%);stop-opacity:0;"/>
</radialGradient>
<radialGradient id="radial6" gradientUnits="userSpaceOnUse" cx="450.908936" cy="189.579361" fx="450.908936" fy="189.579361" r="21.166656" gradientTransform="matrix(-0.000000130628,-0.0585994,0.105479,-0.0000000761539,-7.344953,46.704218)">
<stop offset="0" style="stop-color:rgb(0%,0%,0%);stop-opacity:0.313726;"/>
<stop offset="0.222222" style="stop-color:rgb(0%,0%,0%);stop-opacity:0.27451;"/>
<stop offset="1" style="stop-color:rgb(0%,0%,0%);stop-opacity:0;"/>
</radialGradient>
<radialGradient id="radial7" gradientUnits="userSpaceOnUse" cx="450.908936" cy="189.579361" fx="450.908936" fy="189.579361" r="21.166656" gradientTransform="matrix(0.000000130628,0.0585994,-0.105479,0.0000000761539,34.384648,-6.637891)">
<stop offset="0" style="stop-color:rgb(0%,0%,0%);stop-opacity:0.313726;"/>
<stop offset="0.222222" style="stop-color:rgb(0%,0%,0%);stop-opacity:0.27451;"/>
<stop offset="1" style="stop-color:rgb(0%,0%,0%);stop-opacity:0;"/>
</radialGradient>
<linearGradient id="linear2" gradientUnits="userSpaceOnUse" x1="760" y1="1615.118164" x2="760" y2="175.118134" gradientTransform="matrix(0.0124035,0,0,0.0124035,0,0.00000000000000141)">
<stop offset="0" style="stop-color:rgb(36.078432%,41.960785%,75.294119%);stop-opacity:1;"/>
<stop offset="1" style="stop-color:rgb(47.450981%,52.549022%,79.607844%);stop-opacity:1;"/>
</linearGradient>
</defs>
<g id="surface1">
<path style=" stroke:none;fill-rule:nonzero;fill:url(#linear0);" d="M 4.464844 20.03125 L 6.699219 20.03125 L 6.699219 21.027344 L 4.464844 21.027344 Z M 4.464844 20.03125 "/>
<path style=" stroke:none;fill-rule:nonzero;fill:url(#radial0);" d="M 6.699219 20.03125 L 8.683594 20.03125 L 8.683594 19.039062 L 6.699219 19.039062 Z M 6.699219 20.03125 "/>
<path style=" stroke:none;fill-rule:nonzero;fill:url(#radial1);" d="M 4.464844 20.03125 L 2.480469 20.03125 L 2.480469 21.027344 L 4.464844 21.027344 Z M 4.464844 20.03125 "/>
<path style=" stroke:none;fill-rule:nonzero;fill:url(#radial2);" d="M 4.464844 20.03125 L 2.480469 20.03125 L 2.480469 19.039062 L 4.464844 19.039062 Z M 4.464844 20.03125 "/>
<path style=" stroke:none;fill-rule:nonzero;fill:url(#radial3);" d="M 6.699219 20.03125 L 8.683594 20.03125 L 8.683594 21.027344 L 6.699219 21.027344 Z M 6.699219 20.03125 "/>
<path style=" stroke:none;fill-rule:nonzero;fill:url(#linear1);" d="M 12.402344 20.03125 L 14.636719 20.03125 L 14.636719 21.027344 L 12.402344 21.027344 Z M 12.402344 20.03125 "/>
<path style=" stroke:none;fill-rule:nonzero;fill:url(#radial4);" d="M 14.636719 20.03125 L 16.621094 20.03125 L 16.621094 19.039062 L 14.636719 19.039062 Z M 14.636719 20.03125 "/>
<path style=" stroke:none;fill-rule:nonzero;fill:url(#radial5);" d="M 12.402344 20.03125 L 10.417969 20.03125 L 10.417969 21.027344 L 12.402344 21.027344 Z M 12.402344 20.03125 "/>
<path style=" stroke:none;fill-rule:nonzero;fill:url(#radial6);" d="M 12.402344 20.03125 L 10.417969 20.03125 L 10.417969 19.039062 L 12.402344 19.039062 Z M 12.402344 20.03125 "/>
<path style=" stroke:none;fill-rule:nonzero;fill:url(#radial7);" d="M 14.636719 20.03125 L 16.621094 20.03125 L 16.621094 21.027344 L 14.636719 21.027344 Z M 14.636719 20.03125 "/>
<path style=" stroke:none;fill-rule:nonzero;fill:url(#linear2);" d="M 9.425781 2.171875 C 8.050781 2.171875 6.945312 3.277344 6.945312 4.652344 C 6.945312 5.46875 7.335938 6.1875 7.9375 6.640625 L 7.9375 7.132812 L 3.472656 7.132812 C 3.199219 7.132812 2.976562 7.355469 2.976562 7.628906 L 2.976562 12.09375 L 3.46875 12.09375 C 3.921875 11.492188 4.644531 11.101562 5.457031 11.101562 C 6.832031 11.101562 7.9375 12.210938 7.9375 13.582031 C 7.9375 14.957031 6.832031 16.0625 5.457031 16.0625 C 4.644531 16.0625 3.921875 15.675781 3.46875 15.070312 L 2.976562 15.070312 L 2.976562 19.535156 C 2.976562 19.8125 3.199219 20.03125 3.472656 20.03125 L 7.9375 20.03125 L 7.9375 19.539062 C 7.335938 19.089844 6.945312 18.367188 6.945312 17.550781 C 6.945312 16.179688 8.050781 15.070312 9.425781 15.070312 C 10.800781 15.070312 11.90625 16.179688 11.90625 17.550781 C 11.90625 18.367188 11.519531 19.089844 10.914062 19.539062 L 10.914062 20.03125 L 15.378906 20.03125 C 15.65625 20.03125 15.875 19.8125 15.875 19.535156 L 15.875 15.070312 L 16.371094 15.070312 C 16.820312 15.675781 17.542969 16.0625 18.355469 16.0625 C 19.730469 16.0625 20.839844 14.957031 20.839844 13.582031 C 20.839844 12.210938 19.730469 11.101562 18.355469 11.101562 C 17.542969 11.101562 16.820312 11.492188 16.371094 12.09375 L 15.875 12.09375 L 15.875 7.628906 C 15.875 7.355469 15.65625 7.132812 15.378906 7.132812 L 10.914062 7.132812 L 10.914062 6.640625 C 11.519531 6.1875 11.90625 5.46875 11.90625 4.652344 C 11.90625 3.277344 10.800781 2.171875 9.425781 2.171875 Z M 9.425781 2.171875 "/>
<path style=" stroke:none;fill-rule:nonzero;fill:rgb(100%,100%,100%);fill-opacity:0.392157;" d="M 9.425781 2.171875 C 8.050781 2.171875 6.945312 3.277344 6.945312 4.652344 C 6.945312 4.714844 6.949219 4.777344 6.953125 4.835938 C 7.046875 3.550781 8.117188 2.542969 9.425781 2.542969 C 10.738281 2.542969 11.804688 3.550781 11.902344 4.835938 C 11.90625 4.777344 11.90625 4.714844 11.90625 4.652344 C 11.90625 3.277344 10.800781 2.171875 9.425781 2.171875 Z M 3.472656 7.132812 C 3.199219 7.132812 2.976562 7.355469 2.976562 7.628906 L 2.976562 8 C 2.976562 7.726562 3.199219 7.503906 3.472656 7.503906 L 7.9375 7.503906 L 7.9375 7.132812 Z M 10.914062 7.132812 L 10.914062 7.503906 L 15.378906 7.503906 C 15.65625 7.503906 15.875 7.726562 15.875 8 L 15.875 7.628906 C 15.875 7.355469 15.65625 7.132812 15.378906 7.132812 Z M 18.355469 11.101562 C 17.542969 11.101562 16.820312 11.492188 16.371094 12.09375 L 15.875 12.09375 L 15.875 12.46875 L 16.371094 12.46875 C 16.820312 11.863281 17.542969 11.476562 18.355469 11.476562 C 19.667969 11.476562 20.738281 12.484375 20.832031 13.769531 C 20.835938 13.707031 20.839844 13.644531 20.839844 13.582031 C 20.839844 12.210938 19.730469 11.101562 18.355469 11.101562 Z M 7.929688 13.769531 C 7.835938 15.054688 6.769531 16.0625 5.457031 16.0625 C 4.644531 16.0625 3.921875 15.675781 3.46875 15.070312 L 2.976562 15.070312 L 2.976562 15.445312 L 3.46875 15.445312 C 3.921875 16.046875 4.644531 16.4375 5.457031 16.4375 C 6.832031 16.4375 7.9375 15.328125 7.9375 13.957031 C 7.9375 13.894531 7.9375 13.832031 7.929688 13.769531 Z M 6.953125 17.738281 C 6.949219 17.800781 6.945312 17.863281 6.945312 17.925781 C 6.945312 18.738281 7.335938 19.460938 7.9375 19.910156 L 7.9375 19.539062 C 7.382812 19.121094 7.007812 18.476562 6.953125 17.738281 Z M 11.902344 17.738281 C 11.847656 18.476562 11.472656 19.121094 10.914062 19.539062 L 10.914062 19.910156 C 11.519531 19.460938 11.90625 18.738281 11.90625 17.925781 C 11.90625 17.863281 11.90625 17.800781 11.902344 17.738281 Z M 11.902344 17.738281 "/>
<path style=" stroke:none;fill-rule:nonzero;fill:rgb(0%,0%,0%);fill-opacity:0.235294;" d="M 6.953125 4.464844 C 6.949219 4.527344 6.945312 4.589844 6.945312 4.652344 C 6.945312 5.46875 7.335938 6.1875 7.9375 6.640625 L 7.9375 6.269531 C 7.382812 5.851562 7.007812 5.203125 6.953125 4.464844 Z M 11.902344 4.464844 C 11.847656 5.203125 11.472656 5.851562 10.914062 6.269531 L 10.914062 6.640625 C 11.519531 6.1875 11.90625 5.46875 11.90625 4.652344 C 11.90625 4.589844 11.90625 4.527344 11.902344 4.464844 Z M 5.457031 10.730469 C 4.644531 10.730469 3.921875 11.121094 3.46875 11.722656 L 2.976562 11.722656 L 2.976562 12.09375 L 3.46875 12.09375 C 3.921875 11.492188 4.644531 11.101562 5.457031 11.101562 C 6.769531 11.101562 7.835938 12.109375 7.929688 13.398438 C 7.9375 13.335938 7.9375 13.273438 7.9375 13.210938 C 7.9375 11.835938 6.832031 10.730469 5.457031 10.730469 Z M 20.832031 13.398438 C 20.738281 14.683594 19.667969 15.691406 18.355469 15.691406 C 17.542969 15.691406 16.820312 15.304688 16.371094 14.699219 L 15.875 14.699219 L 15.875 15.070312 L 16.371094 15.070312 C 16.820312 15.675781 17.542969 16.0625 18.355469 16.0625 C 19.730469 16.0625 20.839844 14.957031 20.839844 13.582031 C 20.839844 13.519531 20.835938 13.457031 20.832031 13.398438 Z M 9.425781 14.699219 C 8.050781 14.699219 6.945312 15.804688 6.945312 17.179688 C 6.945312 17.242188 6.949219 17.304688 6.953125 17.363281 C 7.046875 16.078125 8.117188 15.070312 9.425781 15.070312 C 10.738281 15.070312 11.804688 16.078125 11.902344 17.363281 C 11.90625 17.304688 11.90625 17.242188 11.90625 17.179688 C 11.90625 15.804688 10.800781 14.699219 9.425781 14.699219 Z M 2.976562 19.164062 L 2.976562 19.535156 C 2.976562 19.8125 3.199219 20.03125 3.472656 20.03125 L 7.9375 20.03125 L 7.9375 19.660156 L 3.472656 19.660156 C 3.199219 19.660156 2.976562 19.441406 2.976562 19.164062 Z M 15.875 19.164062 C 15.875 19.441406 15.65625 19.660156 15.378906 19.660156 L 10.914062 19.660156 L 10.914062 20.03125 L 15.378906 20.03125 C 15.65625 20.03125 15.875 19.8125 15.875 19.535156 Z M 15.875 19.164062 "/>
<path style="fill:none;stroke-width:11.338583;stroke-linecap:round;stroke-linejoin:round;stroke:rgb(12.941177%,12.941177%,12.941177%);stroke-opacity:1;stroke-miterlimit:4;" d="M 759.927471 175.101398 C 649.071909 175.101398 559.946557 264.22675 559.946557 375.082311 C 559.946557 440.902801 591.439614 498.850026 639.938923 535.381973 L 639.938923 575.063225 L 279.973279 575.063225 C 257.928139 575.063225 239.977096 593.014267 239.977096 615.059407 L 239.977096 975.025051 L 279.658348 975.025051 C 316.190294 926.525743 374.45245 895.032686 439.958009 895.032686 C 550.813571 895.032686 639.938923 984.472968 639.938923 1095.013599 C 639.938923 1205.869161 550.813571 1294.994513 439.958009 1294.994513 C 374.45245 1294.994513 316.190294 1263.816386 279.658348 1215.002147 L 239.977096 1215.002147 L 239.977096 1574.967791 C 239.977096 1597.327862 257.928139 1614.963974 279.973279 1614.963974 L 639.938923 1614.963974 L 639.938923 1575.282722 C 591.439614 1539.065706 559.946557 1480.80355 559.946557 1414.98306 C 559.946557 1304.44243 649.071909 1215.002147 759.927471 1215.002147 C 870.783032 1215.002147 959.908384 1304.44243 959.908384 1414.98306 C 959.908384 1480.80355 928.730257 1539.065706 879.916018 1575.282722 L 879.916018 1614.963974 L 1239.881662 1614.963974 C 1262.241733 1614.963974 1279.877845 1597.327862 1279.877845 1574.967791 L 1279.877845 1215.002147 L 1319.874028 1215.002147 C 1356.091044 1263.816386 1414.353199 1294.994513 1479.858758 1294.994513 C 1590.71432 1294.994513 1680.154602 1205.869161 1680.154602 1095.013599 C 1680.154602 984.472968 1590.71432 895.032686 1479.858758 895.032686 C 1414.353199 895.032686 1356.091044 926.525743 1319.874028 975.025051 L 1279.877845 975.025051 L 1279.877845 615.059407 C 1279.877845 593.014267 1262.241733 575.063225 1239.881662 575.063225 L 879.916018 575.063225 L 879.916018 535.381973 C 928.730257 498.850026 959.908384 440.902801 959.908384 375.082311 C 959.908384 264.22675 870.783032 175.101398 759.927471 175.101398 Z M 759.927471 175.101398 " transform="matrix(0.0124035,0,0,0.0124035,0,0)"/>
</g>
</svg>
